X:21
T:American Eagle Quickstep
S:American Veteran Fifer, #21
M:2/4
L:1/8
Q:1/8=200
K:G 
%%MIDI program 72
%%MIDI transpose 8
%%MIDI ratio 3 1
|: B/A/ | GDEG | BA/G/ Bd | edgB | A/B/A/G/ ED |
GDEG | BA/G/ Bd | GABG | A/G/A/B/ G :|
|: B/c/ | de/f/ gf | ed BB/c/ | dBgB | A/B/A/G/ ED |
de/f/ gf | ed ef/g/ | G>A BG | A/G/A/B/ G :|


